X:168 
T:Paddy Murphy's Wife (reel) 
B:CRE3.165 (Bean PhÃÂÃÂÃÂÃÂ¡draig UÃÂÃÂÃÂÃÂ­ MhurchÃÂÃÂÃÂÃÂº)
F:file ID: cre.3/168paddy_mw
N:In measures 10 and 14, CRE has an octave |c| as the second note:
|ec'ce|. Since it happens twice, it doesn't seem to be an error, but I
can't think of too many musicians who would be able to play it as
written. (CRE version is from a box player.) In my version I have taken 
the easy way out and extended the length of the first note: |e2ce|
R:reel
L:1/8
Q:180
M:C
K:G
"D modal"
G|(3FED AD BDAD|G2cG ECAG|(3FED AD BDAD|Adce (3dcd AG|
(3FED AD BDAD|G2cG ECAG|(3FED AD BDAD|Adce d2||
de|fada fdag|e2cd efge|fade fddc|(3Bcd AG (3FGA De|
fada fdag|e2cd efge|af (3gfe (3fed dc|(3Bcd AG (3FGA D||

%%%

